openmetadata-ui/src/main/resources/ui/src/assets/svg/ms-teams.svg

<svg viewBox="0 0 33 32" fill="none" xmlns="http://www.w3.org/2000/svg">
<g clip-path="url(#clip0_13621_28509)">
<path d="M27.394 12.221C27.659 12.486 27.9716 12.6967 28.3168 12.8435C29.0372 13.1452 29.8485 13.1452 30.5702 12.8435C31.2661 12.5472 31.8206 11.9941 32.1155 11.2982C32.4172 10.5779 32.4172 9.76649 32.1155 9.04481C31.8192 8.34895 31.2661 7.79444 30.5702 7.49951C29.8499 7.19779 29.0385 7.19779 28.3168 7.49951C27.621 7.7958 27.0665 8.34895 26.7715 9.04481C26.4698 9.76513 26.4698 10.5765 26.7715 11.2982C26.9183 11.642 27.1303 11.956 27.394 12.221ZM26.5459 14.9093V23.6361H28.0002C28.5003 23.6334 28.9977 23.5872 29.4884 23.4948C29.9817 23.4078 30.4574 23.242 30.8978 23.0028C31.3137 22.7772 31.6725 22.4591 31.9484 22.0759C32.2378 21.6505 32.3833 21.1435 32.3629 20.6284V14.9093H26.5459ZM21.8326 11.2506C22.2186 11.2533 22.6018 11.1759 22.9579 11.0237C23.6538 10.7274 24.2069 10.1742 24.5018 9.47836C24.8036 8.75804 24.8036 7.94666 24.5005 7.22497C24.2042 6.52911 23.6511 5.9746 22.9552 5.67968C22.5991 5.52746 22.2158 5.44999 21.8285 5.45271C21.4439 5.44999 21.0633 5.52746 20.71 5.67968C20.4463 5.79248 20.3634 5.93927 20.0005 6.11595V10.5874C20.3647 10.7654 20.4463 10.9109 20.71 11.0237C21.0647 11.1772 21.4466 11.2533 21.8326 11.2506ZM20.0005 25.9439C20.3647 26.0227 20.4952 26.0838 20.7535 26.1192C21.0361 26.16 21.3216 26.1803 21.607 26.1817C22.0473 26.179 22.4877 26.1328 22.9185 26.0403C23.3575 25.952 23.7788 25.7876 24.1621 25.5552C24.5385 25.3241 24.8552 25.0088 25.089 24.635C25.3472 24.1988 25.4736 23.6959 25.4546 23.189V13.0908H20.0005V25.9439V25.9439ZM0 28.7273L18.9092 32V0L0 3.27271V28.7273Z" fill="#5558AF"/>
<path d="M13.8166 9.81836L5.08984 10.3498V12.3626L8.36256 12.2308V21.5637L10.5439 21.6915V12.1451L13.8166 11.9997V9.81836Z" fill="white"/>
</g>
<defs>
<clipPath id="clip0_13621_28509">
<rect width="32.3656" height="32" fill="white"/>
</clipPath>
</defs>
</svg>

<svg xmlns="http://www.w3.org/2000/svg" fill="none" viewBox="0 0 33 32"><g clip-path="url(#a)"><path fill="#5558AF" d="M27.394 12.221c.265.265.578.476.923.623.72.301 1.532.301 2.253 0a2.918 2.918 0 0 0 1.545-1.546 2.918 2.918 0 0 0 0-2.253A2.919 2.919 0 0 0 30.57 7.5a2.918 2.918 0 0 0-2.253 0c-.696.296-1.25.849-1.546 1.545a2.918 2.918 0 0 0 0 2.253c.147.344.36.658.623.923Zm-.848 2.688v8.727H28c.5-.003.998-.049 1.488-.141a4.64 4.64 0 0 0 1.41-.492 3.143 3.143 0 0 0 1.05-.927c.29-.425.435-.933.415-1.448V14.91h-5.817Zm-4.713-3.658c.386.002.769-.075 1.125-.227a2.916 2.916 0 0 0 1.544-1.546 2.912 2.912 0 0 0-.002-2.253 2.918 2.918 0 0 0-1.545-1.545 2.816 2.816 0 0 0-1.127-.227 2.776 2.776 0 0 0-1.118.227c-.264.112-.347.26-.71.436v4.471c.365.178.446.324.71.437.355.153.737.23 1.123.227ZM20 25.944c.364.079.494.14.752.175.283.041.569.061.854.063a6.44 6.44 0 0 0 1.312-.142c.439-.088.86-.252 1.243-.485.377-.23.693-.546.927-.92.258-.436.385-.94.366-1.446V13.091H20v12.853ZM0 28.727 18.91 32V0L0 3.273v25.454Z"/><path fill="#fff" d="m13.817 9.818-8.727.532v2.013l3.273-.132v9.333l2.18.128v-9.547L13.818 12V9.818Z"/></g><defs><clipPath id="a"><path fill="#fff" d="M0 0h32.366v32H0z"/></clipPath></defs></svg>
